X: 3050
T: LOCH FYNE
C: Carl Volti
Q:"Reel."
R: Reel.
%R:reel
B: James Kerr "Merry Melodies" v.3 p.8 #50
Z: 2016 John Chambers <jc:trillian.mit.edu>
M: C
L: 1/8
K: G
|:\
vd2BG d2BG | (ef)ge dBG2 |\
[1 d2BG d2BG | edcB A2(Bc) :|\
[2 efge dBGB | AGAB G2z2 |:\
(dg)dB G2GB | AGAB GABc |\
dgdB G2(GB) | AGAB G2z2 :|

%%sep 1 1 500
%%sep 1 1 500

